src/basic/500/u2192-right.svg

<svg width="28" height="28" viewBox="0 0 28 28" fill="none" xmlns="http://www.w3.org/2000/svg">
<path fill-rule="evenodd" clip-rule="evenodd" d="M25.0457,14.086l-8.4825,-8.48244l0.7071,-0.70711l9.3333,9.33335l0.3535,0.3535l-0.3535,0.3536l-9.3334,9.3333l-0.7071,-0.7071l8.4771,-8.4771h-25.04019v-1z" fill="black"/>
</svg>

<svg width="28" height="28" viewBox="0 0 28 28" fill="none" xmlns="http://www.w3.org/2000/svg">
<path fill-rule="evenodd" clip-rule="evenodd" d="M25.0457 14.086L16.5632 5.60356L17.2703 4.89645L26.6036 14.2298L26.9571 14.5833L26.6036 14.9369L17.2702 24.2702L16.5631 23.5631L25.0402 15.086H7.62939e-06V14.086H25.0457Z" fill="black"/>
</svg>
